**kern	**kern
*staff2	*staff1
*clefF4	*clefG2
*k[b-]	*k[b-]
*M3/8	*M3/8
*F:	*F:
=	=
4.r	(16ccLL
.	16f
.	16a
.	16cc
.	16ff
.	16ccJJ)
=34	=34
(16B-LL	(4dd
16d	.
16f	.
16b-	.
16a	8cc)
16fJJ)	.
=35	=35
(16cLL	4.r
16F	.
16A	.
16c	.
16f	.
16cJJ)	.
=36	=36
(4d	(16b-LL
.	16dd
.	16ff
.	16bb-
8c)	16aa
.	16ffJJ)
=37	=37
8c'L	(16eeLL
.	16gg)
8C'J	(16b-
.	16ee)
8r	(16g
.	16b-JJ)
=38	=38
8C'	(16eLL
.	16gJJ)
4CC; 4C;	4E; 4G; 4B-;
=39	=39
(16AALL	(16ffLL
16C	16cc
16F)	16a)
16F'	16a'
16F'	16a'
16F'JJ	16a'JJ
=40	=40
(16BB-LL	(16ddLL
16D	16b-
16G)	16g)
16G'	16g'
16G'	16g'
16G'JJ	16g'JJ
=41	=41
(16CLL	(16ccLL
16F	16a
16A	16f)
16C	(16b-
16G	16g
16B-JJ)	16eJJ)
=42	=42
8F 8A	(16fLL
.	16a
8r	16cc
.	16ff
8r	16aa
.	16ffJJ)
=43	=43
*-	*-
